X:911
T:The ass in the graveyard
R:Waltz
S:George Grasso
Z:Transcription:George Grasso, chords:Mike Long
M:3/4
L:1/8
K:D
A|\
"D"A2 dc de|d3 e fd|"A/Em"ed ce "G"dB|"A"A4 ef|"G"g2 ef ge|\
"D"f2 de fd|
[1 "A/Em"ed ce "G"dB|"A"c4 A2:|[2 "A"ed cd "G"ec|"D"d3 e fg\
|:"D"ag fa "A"ge|"D"f4 e2|"G"dg cg Bg|
"A"A4 ef|"G"g2 ef ge|\
"D"f2 de fd|[1 "A/Em"ed ce "G"dB|"A"c4 A2:|[2 "A"ed cd "G"ec|"D"d4|]
